X: 091
T: the Rose in June
%R: waltz
M: 3/8
L: 1/8
Z: 2014 John Chambers <jc:trillian.mit.edu>
B: Chas & Sam Thompson "Twenty Four Country Dances for the Year 1802", London 1802, p.9 #1
F: http://folkopedia.efdss.org/images/4/41/Thompson_24_1802.PDF
N: rest added at start of 2nd strain to fix the rhythms.
K: D
A |\
dAA | fdd | age | e>fg |\
afd | d>cd | ecA | A2A |\
dAA | e>fg | fad | ede |
ddd | faf | ddd | d2 H:|\
|: z |\
fff | ecA | {Bc}dB^G | Ace |\
fff | ecA | {Bc}dB^G | "_ D.C."A2 :|
% - - - - - - - - - - - - - - - - - - - - - - - - -
%%begintext align
%% First Cu: Lead down through the Second Cu:
%% to the top and Hands four Round lead down
%% the Middle and Swing Corners.
%%endtext
% - - - - - - - - - - - - - - - - - - - - - - - - -
